teeny/solid/receipt.svg

<svg width="15" height="15" viewBox="0 0 15 15" fill="none" xmlns="http://www.w3.org/2000/svg">
<path fill-rule="evenodd" clip-rule="evenodd" d="M1 0.5C1 0.223858 1.22386 0 1.5 0H13.5C13.7761 0 14 0.223858 14 0.5V14.5C14 14.6733 13.9103 14.8342 13.7629 14.9253C13.6155 15.0164 13.4314 15.0247 13.2764 14.9472L11.5 14.059L9.72361 14.9472C9.58284 15.0176 9.41716 15.0176 9.27639 14.9472L7.5 14.059L5.72361 14.9472C5.58284 15.0176 5.41716 15.0176 5.27639 14.9472L3.5 14.059L1.72361 14.9472C1.56861 15.0247 1.38454 15.0164 1.23713 14.9253C1.08973 14.8342 1 14.6733 1 14.5V0.5ZM4 5H6V4H4V5ZM8 5H11V4H8V5ZM6 8H4V7H6V8ZM8 8H11V7H8V8ZM11 11H8V10H11V11Z" fill="black"/>
</svg>

<svg viewBox="0 0 15 15" xmlns="http://www.w3.org/2000/svg"><path fill-rule="evenodd" d="M1 .5c0-.28.22-.5.5-.5h12c.27 0 .5.22.5.5v14c0 .17-.09.33-.24.42 -.15.09-.34.09-.49.02l-1.78-.89 -1.78.88c-.15.07-.31.07-.45 0l-1.78-.89 -1.78.88c-.15.07-.31.07-.45 0l-1.78-.89 -1.78.88c-.16.07-.34.06-.49-.03 -.15-.1-.24-.26-.24-.43v-14ZM4 5h2V4H4v1Zm4 0h3V4H8v1ZM6 8H4V7h2v1Zm2 0h3V7H8v1Zm3 3H8v-1h3v1Z"/></svg>
